X:1
T:Title
%%score { ( 1 4 ) | ( 2 3 ) }
L:1/8
M:6/8
K:F
V:1 treble nm="Grand Piano"
V:4 treble 
V:2 bass 
V:3 bass 
V:1
 z3 z2[Q:1/4=100] A | A2 A FGA | B3 A2 A | [CEA]2 [B,EG] [E,C]2 [B,EG] |[M:5/8] F-F- F3 | %5
[M:1/8] A |[M:3/4] A2 .A2 GA | B3 A2 A | G2 G =B2 B |[M:5/8] [Ec]-[Ec]- [Ec]3 |[M:1/8] [Bc] | %11
[M:3/4] [Ac]2 [Ac]A Bc | d3 c2 [Ac] | [GB]2 [GB][EG] [FA][GB] |[M:5/8] [Ac]3 [GB]2 |[M:1/8] [EG] | %16
[M:3/4] A2 AA Bc | d2 B[DB] A[B,DG] | [A,CF]3 [B,CG]3 |[M:5/8] [A,CF]-[A,CF]- [A,CF]3 |] %20
V:2
 z3 z2 [F,CF] | [F,CF]2 [F,CF] A,B,[F,CF] | [F,DF]3 [F,CF]2 [F,CF] | C,2 C, C,2 C, | %4
[M:5/8] [F,A,]-[F,A,]- [F,A,]3 |[M:1/8] [F,CF] |[M:3/4] [F,CF]2 [F,CF]A, B,[K:treble][F,CF] | %7
 [F,DF]3 [F,CF]2 [F,CF] | [G,CE]2 [G,CE] [G,DF]2 [G,DF] |[M:5/8][K:bass] [C,C]-[C,C]- [C,C]3 | %10
[M:1/8] [C,C] |[M:3/4] z2 z[K:treble] .[F,F]3 | [F,B,F]3 [F,A,F]2[K:bass] [F,C] | %13
 [C,C]2 [C,C] [C,C]2 [C,C] |[M:5/8] [C,C]3 [C,C]2 |[M:1/8] [C,C] | %16
[M:3/4][K:treble] [F,CF]2 [F,CF]C- [G,CE][A,CF] | [B,F]2 .[B,DF]2[K:bass] CB,, | C,3 C,3 | %19
[M:5/8] F,-F,- F,3 |] %20
V:3
 x6 | z3 .F,3 | x6 | x6 |[M:5/8] x5 |[M:1/8] x |[M:3/4] z2 z .F,3[K:treble] | x6 | x6 | %9
[M:5/8][K:bass] x5 |[M:1/8] x |[M:3/4] [F,C]2 [F,C][K:treble]C D[F,A,F] | x5[K:bass] x | x6 | %14
[M:5/8] x5 |[M:1/8] x |[M:3/4][K:treble] z2 z [F,F] z2 | z2 z[K:bass] .B,,3 | x6 |[M:5/8] x5 |] %20
V:4
 x6 | x6 | x6 | x6 |[M:5/8] x5 |[M:1/8] x |[M:3/4] z2 z .F3 | x6 | x6 |[M:5/8] x5 |[M:1/8] x | %11
[M:3/4] x6 | x6 | x6 |[M:5/8] x5 |[M:1/8] x |[M:3/4] x6 | z2 z .F3 | x6 |[M:5/8] x5 |] %20

